X:1
T:Out on the Ocean [1]
M:6/8
L:1/8
K:G
G|~B3 BAG|BdB A2B|GED G2A|BAB AGE|
~B3 BAG|BdB A2B|GED G2A|BGF G2:|
||d|ege edB|ege edB|ded dBA|ded dBA|
G2A B2d|ege dBA|GED G2A|BGF GBd|
ege edB|ege edB|ded def|gfe dBA|
G2A B2d|ege dBA|GED G2A|BGF G2||

